!!!OTL: ALS DIE PREUSSEN MARSCHIRTEN
!!!ARE: Europa, Mitteleuropa, Deutschland, Preussen
!!!SCT: Z0095
!!!YEM: Copyright 1995, estate of Helmut Schaffrath.
**kern
*ICvox
*Ivox
*M4/4
*k[f#]
*G:
{8d
8d
=1
4g
8g
8g
8g
8d
8B
8G
=2
2d
4r}
{4b
=3
4.a
8b
8a
8g
8f#
8e
=4
2d
4r}
{4b
=5
8a
8b
8a
8g
8f#
8e
8d
8c
=6
8B
8d
8g
8b
8dd
8r}
{4b
=7
8a
8b
8a
8g
8f#
8e
8d
8c
=8
8B
8d
8g
8b
8dd
8r}
{4b
=9
4.a
8b
4.a
8b
=10
8a
8a
8dd
8b
4a
8r}
{8a
=11
4ee
4r
8ee
8dd
8b
8g
=12
4d
4f#
4g}
==
!!!AGN: Sagen - Lied, Romanze, Soldaten - Lied
!!!ONB: ESAC (Essen Associative Code) Database: ZUCCAL
!!!AMT: simple quadruple
!!!AIN: vox
!!!EED: Helmut Schaffrath
!!!EEV: 1.0
*-
